11/img/logo-small.svg

<svg width="150" height="38" viewBox="0 0 150 38" fill="none" xmlns="http://www.w3.org/2000/svg">
<g clip-path="url(#clip0_59161_427)">
<path d="M6.19388 20.9349V18.6514C13.0139 17.7242 19.8916 17.2752 26.7755 17.3076C26.7755 17.9139 26.7755 18.5302 26.7143 19.1465C28.671 18.2867 30.7273 17.6691 32.8367 17.3076C31.4923 13.8643 29.0426 10.9536 25.8644 9.02347C22.6862 7.09332 18.9555 6.25055 15.2463 6.62482C11.5372 6.9991 8.05489 8.56967 5.33522 11.095C2.61556 13.6202 0.809152 16.9603 0.193878 20.6014L6.19388 20.9349Z" fill="#FDC305"/>
<path d="M27.7959 24.4813C26.6122 25.7745 26.3776 25.6937 26.3776 27.967C26.3776 28.8865 26.3776 32.9178 26.3776 37.2422C28.7169 35.7125 30.6373 33.6331 31.9674 31.1895C33.2974 28.746 33.9957 26.0143 34 23.2385C33.9865 22.1869 33.8773 21.1385 33.6735 20.1064C31.5594 21.3486 29.5885 22.8156 27.7959 24.4813Z" fill="#FDC305"/>
<path d="M6.4898 25.9867C6.4898 25.9867 2.62245 24.5318 1.19388 24.1377C0.80313 24.0158 0.404181 23.9212 0 23.8548C0.110608 26.7707 0.985294 29.608 2.53815 32.0879C4.09101 34.5679 6.26863 36.6053 8.85714 38L6.4898 25.9867Z" fill="#FDC305"/>
<path d="M26.8265 17.2975C26.868 11.7189 26.3898 6.1484 25.398 0.656758C25.398 0.656758 25.2551 -0.646619 24.4898 0.414269C23.8887 1.67535 23.4762 3.01637 23.2653 4.39512C18.9202 4.11805 14.5587 4.23303 10.2347 4.73865C9.42857 2.02076 8.0102 0.757795 7.32653 1.01039C6.64286 1.26298 6.59184 4.35471 6.59184 4.35471L6.2551 18.6009C13.0727 17.6876 19.947 17.252 26.8265 17.2975Z" fill="#F06351"/>
<path d="M12.6633 14.1452C12.6633 14.0542 13.6837 14.8322 14.102 15.0747C14.5204 15.3172 14.7245 15.4991 14.7245 15.6708C14.7245 15.8426 14.449 16.0144 14.0816 16.0144C13.7143 16.0144 13.1531 15.8931 13.0612 15.7416H14.0204H14.3163C13.6946 15.2863 13.1385 14.7492 12.6633 14.1452Z" fill="black"/>
<path d="M20.2959 14.2563L19.1837 15.6001C19.1837 15.6607 19.0102 15.9537 19.3673 15.9032C19.79 15.8408 20.2065 15.7428 20.6122 15.6102C20.7245 15.6102 20.6837 15.4182 20.5 15.4384C20.3163 15.4587 19.7959 15.489 19.4796 15.5496L20.3367 14.2765C20.3367 14.2765 20.4082 14.1452 20.2959 14.2563Z" fill="black"/>
<path d="M17.0918 20.4095C17.5648 20.2031 17.9558 19.848 18.2041 19.3991C18.4898 18.7424 18.2041 18.4797 17.7551 18.3887C17.1407 18.2777 16.5066 18.4004 15.9796 18.7323C15.5816 19.096 15.6327 19.4597 15.9286 19.7426C16.287 20.0116 16.6778 20.2356 17.0918 20.4095Z" fill="black"/>
<path d="M16.6837 21.6724C16.5693 21.9033 16.4098 22.1094 16.2143 22.2786C15.9237 22.5102 15.5664 22.6446 15.1939 22.6626C14.657 22.705 14.1231 22.5504 13.6939 22.2281C13.4921 22.1077 13.3098 21.9578 13.1531 21.7836C13.0505 21.6715 12.9254 21.582 12.7857 21.5209C12.7857 21.5209 13.551 25.6634 15.4082 26.3201C17.2653 26.9769 17.5918 25.5624 17.6531 25.1784C17.7144 24.0318 17.4226 22.8937 16.8163 21.9149C16.7959 21.6017 16.7857 21.8038 16.6837 21.6724Z" fill="#F06351"/>
<path d="M15.0102 22.8242C14.536 22.7583 14.0805 22.597 13.6716 22.3503C13.2627 22.1035 12.9092 21.7766 12.6327 21.3895C12.6191 21.3764 12.6083 21.3606 12.6009 21.3433C12.5936 21.3259 12.5898 21.3073 12.5898 21.2885C12.5898 21.2697 12.5936 21.251 12.6009 21.2337C12.6083 21.2163 12.6191 21.2006 12.6327 21.1874C12.646 21.174 12.6618 21.1633 12.6794 21.156C12.6969 21.1487 12.7157 21.145 12.7347 21.145C12.7537 21.145 12.7725 21.1487 12.79 21.156C12.8076 21.1633 12.8234 21.174 12.8367 21.1874C13.3518 21.8889 14.1255 22.3608 14.9898 22.5009C15.3282 22.4757 15.6557 22.3709 15.945 22.1952C16.2343 22.0194 16.477 21.7779 16.6531 21.4906L16.7959 21.2986L16.898 21.5108C16.898 21.5108 17.2755 22.2786 17.9184 22.3191C18.5612 22.3595 18.9898 21.9048 19.5612 21.0258C19.5745 21.0123 19.5904 21.0017 19.6079 20.9944C19.6254 20.9871 19.6443 20.9833 19.6633 20.9833C19.6823 20.9833 19.7011 20.9871 19.7186 20.9944C19.7361 21.0017 19.752 21.0123 19.7653 21.0258C19.7983 21.0466 19.8219 21.0792 19.8314 21.1168C19.8409 21.1544 19.8355 21.1941 19.8163 21.2279C19.1633 22.2382 18.5204 22.6828 17.898 22.6424C17.6612 22.6083 17.4354 22.5215 17.2374 22.3885C17.0395 22.2555 16.8745 22.0797 16.7551 21.8745C16.5544 22.1518 16.2935 22.3811 15.9915 22.5455C15.6896 22.7098 15.3542 22.8051 15.0102 22.8242Z" fill="black"/>
<path d="M26.7755 19.1162C24.9433 20.7567 23.2155 22.508 21.602 24.36C19.9986 26.2051 18.1876 27.8627 16.2041 29.3007C15.9796 28.7652 14.551 27.7751 14.551 27.7751C14.551 27.7751 11.3571 25.6129 9.26531 23.9154C8.13688 22.9731 7.0701 21.9607 6.07143 20.8843L4.03061 20.7732C6.97977 25.0224 11.2961 28.1565 16.2755 29.6645C17.1531 29.523 19.6122 27.7852 21.449 26.3706C23.6111 24.5337 25.6368 22.5448 27.5102 20.4196C28.023 19.8245 28.4176 19.1389 28.6735 18.3988C27.551 18.7929 26.7755 19.1162 26.7755 19.1162Z" fill="#F06351"/>
</g>
<g clip-path="url(#clip1_59161_427)">
<path d="M50.2645 29.5385C49.3696 28.2762 48.9253 26.7627 49 25.2308V18.8462C48.8916 17.2977 49.3081 15.7575 50.1855 14.4615C51.0548 13.4615 52.3983 13 54.374 13C56.3498 13 57.6143 13.4615 58.4045 14.3077C59.2626 15.3794 59.6846 16.7214 59.59 18.0769V19.6154H55.7175V17.8462C55.7488 17.3229 55.6681 16.799 55.4804 16.3077C55.3802 16.1094 55.2212 15.9448 55.024 15.8351C54.8269 15.7255 54.6005 15.6757 54.374 15.6923C53.8208 15.6923 53.4257 15.8462 53.2676 16.2308C53.0888 16.7773 53.0086 17.3499 53.0305 17.9231V26.1538C52.9888 26.71 53.0978 27.267 53.3466 27.7692C53.5047 28.1538 53.8999 28.3077 54.4531 28.3077C55.0063 28.3077 55.3224 28.1538 55.4804 27.7692C55.6601 27.2494 55.7405 26.7019 55.7175 26.1538V24.3077H59.59V25.8462C59.6704 27.2238 59.2508 28.5852 58.4045 29.6923C57.6143 30.6154 56.2707 31.0769 54.374 31.0769C52.4773 31 51.0548 30.5385 50.2645 29.5385Z" fill="#111111"/>
<path d="M64.2527 13.2308H68.7574L72.0767 30.7692H68.4413L67.8091 27.0769H65.2011L64.5689 30.7692H60.8545L64.2527 13.2308ZM67.493 24.7692L66.5446 17.9231L65.5963 24.7692H67.493Z" fill="#111111"/>
<path d="M74.8427 16.1538H72.1557V13.2308H81.5602V16.0769H78.8732V30.7692H74.8427V16.1538Z" fill="#111111"/>
<path d="M88.752 13.2308H95.7066V15.0769H91.2019V20.8462H94.8372V22.6154H91.2019V29.0769H95.7066V30.8462H88.6729V13.2308H88.752Z" fill="#111111"/>
<path d="M97.7613 13.2308H99.5L104.637 24.8462V13.2308H106.692V30.7692H105.111L99.8951 18.7692V30.7692H97.7613V13.2308Z" fill="#111111"/>
<path d="M109.063 13.2308H116.017V15.0769H111.513V20.8462H115.148V22.6154H111.513V29.0769H116.017V30.8462H109.063V13.2308Z" fill="#111111"/>
<path d="M118.072 13.2308H121.707C123.137 13.1346 124.559 13.5144 125.738 14.3077C126.607 15 127.002 16.2308 127.002 17.8462C127.002 20.0769 126.291 21.4615 124.79 21.9231L127.318 30.6923H124.869L122.498 22.4615H120.522V30.6923H117.993V13.2308H118.072ZM121.549 20.7692C122.364 20.8346 123.176 20.6165 123.841 20.1538C124.315 19.7692 124.552 19 124.552 17.8462C124.574 17.273 124.494 16.7004 124.315 16.1538C124.137 15.7617 123.832 15.4373 123.446 15.2308C122.902 14.9893 122.304 14.8836 121.707 14.9231H120.601V20.6923H121.549V20.7692Z" fill="#111111"/>
<path d="M130.164 29.4615C129.342 28.1166 128.956 26.5617 129.057 25V19.1538C129.038 18.0391 129.17 16.9268 129.452 15.8462C129.717 15.0386 130.244 14.3367 130.954 13.8462C131.836 13.3377 132.854 13.0967 133.878 13.1538C135.538 13.1538 136.723 13.5385 137.434 14.3846C138.252 15.5019 138.644 16.8624 138.541 18.2308V18.8462H136.17V18.3077C136.173 17.6635 136.12 17.0201 136.012 16.3846C135.945 15.983 135.718 15.6235 135.379 15.3846C134.935 15.1008 134.408 14.9658 133.878 15C133.311 14.9647 132.75 15.1284 132.297 15.4615C132.111 15.614 131.959 15.8018 131.851 16.0134C131.742 16.2251 131.679 16.4561 131.665 16.6923C131.561 17.38 131.508 18.0741 131.507 18.7692V25.3077C131.449 26.3038 131.61 27.3006 131.981 28.2308C132.297 28.8462 132.93 29.0769 133.878 29.0769C134.252 29.1223 134.632 29.0589 134.97 28.8947C135.307 28.7304 135.587 28.4727 135.775 28.1538C136.192 27.1811 136.381 26.1299 136.328 25.0769V23.8462H134.036V22.0769H138.62V30.7692H137.039L136.802 28.7692C136.595 29.4395 136.163 30.0231 135.576 30.4273C134.989 30.8315 134.28 31.0331 133.562 31C132.909 31.0374 132.256 30.9164 131.663 30.6479C131.07 30.3794 130.555 29.9717 130.164 29.4615V29.4615Z" fill="#111111"/>
<path d="M143.678 24.6154L139.805 13.3077H142.176L144.942 21.7692L147.629 13.3077H150L146.128 24.6154V30.7692H143.757V24.6154H143.678Z" fill="#111111"/>
</g>
<defs>
<clipPath id="clip0_59161_427">
<rect width="34" height="38" fill="white"/>
</clipPath>
<clipPath id="clip1_59161_427">
<rect width="101" height="18" fill="white" transform="translate(49 13)"/>
</clipPath>
</defs>
</svg>

<svg width="150" height="38" fill="none" xmlns="http://www.w3.org/2000/svg"><g clip-path="url(#clip0_59161_427)"><path d="M6.194 20.935V18.65a147.627 147.627 0 0120.582-1.343c0 .606 0 1.222-.062 1.838a26.235 26.235 0 016.123-1.838 16.884 16.884 0 00-6.973-8.285 17.146 17.146 0 00-10.618-2.398 17.087 17.087 0 00-9.91 4.47 16.793 16.793 0 00-5.142 9.506l6 .334zM27.796 24.481c-1.184 1.293-1.418 1.213-1.418 3.486v9.275c2.339-1.53 4.26-3.609 5.59-6.052A16.683 16.683 0 0034 23.237a17.316 17.316 0 00-.327-3.132 33.757 33.757 0 00-5.877 4.375zM6.49 25.987s-3.868-1.455-5.296-1.85A8.798 8.798 0 000 23.856c.11 2.916.985 5.753 2.538 8.233A16.921 16.921 0 008.858 38L6.49 25.987z" fill="#FDC305"/><path d="M26.826 17.297A89.866 89.866 0 0025.398.657s-.143-1.304-.908-.243a14.264 14.264 0 00-1.225 3.981 72.484 72.484 0 00-13.03.344C9.429 2.02 8.01.758 7.327 1.01c-.684.253-.735 3.345-.735 3.345L6.255 18.6a147.586 147.586 0 0120.572-1.303z" fill="#F06351"/><path d="M12.663 14.145c0-.09 1.02.687 1.439.93.418.242.623.424.623.596s-.276.343-.643.343c-.368 0-.929-.12-1.02-.272h1.254a8.472 8.472 0 01-1.653-1.597zM20.296 14.256L19.184 15.6c0 .06-.174.354.183.303.423-.062.84-.16 1.245-.293.113 0 .072-.192-.112-.172-.184.02-.704.051-1.02.112l.857-1.274s.071-.13-.041-.02zM17.092 20.41a2.339 2.339 0 001.112-1.01c.286-.658 0-.92-.449-1.011a2.5 2.5 0 00-1.775.343c-.398.364-.347.728-.051 1.01.358.27.749.494 1.163.668z" fill="#000"/><path d="M16.684 21.672c-.115.231-.274.437-.47.607-.29.231-.648.366-1.02.384a2.21 2.21 0 01-1.5-.435 2.34 2.34 0 01-.54-.444 1.09 1.09 0 00-.368-.263s.765 4.142 2.622 4.8c1.857.656 2.184-.759 2.245-1.143a5.626 5.626 0 00-.837-3.263c-.02-.313-.03-.111-.132-.243z" fill="#F06351"/><path d="M15.01 22.824a3.533 3.533 0 01-1.338-.474 3.496 3.496 0 01-1.071-1.007.142.142 0 01.078-.187.144.144 0 01.158.031 3.331 3.331 0 002.153 1.314c.338-.025.666-.13.955-.306.29-.176.532-.417.708-.704l.143-.192.102.212s.378.768 1.02.808c.643.04 1.072-.414 1.643-1.293a.142.142 0 01.158-.032.142.142 0 01.046.032.151.151 0 01.051.202c-.653 1.01-1.296 1.455-1.918 1.414a1.591 1.591 0 01-1.143-.767 2.3 2.3 0 01-1.745.95z" fill="#000"/><path d="M26.776 19.116a59.511 59.511 0 00-5.174 5.244 32.154 32.154 0 01-5.398 4.94c-.224-.535-1.653-1.525-1.653-1.525s-3.194-2.162-5.286-3.86a34.67 34.67 0 01-3.194-3.03l-2.04-.112a23.017 23.017 0 0012.245 8.892c.877-.142 3.336-1.88 5.173-3.294a59.027 59.027 0 006.061-5.951 6.199 6.199 0 001.163-2.021 39.226 39.226 0 00-1.897.717z" fill="#F06351"/></g><g clip-path="url(#clip1_59161_427)" fill="#111"><path d="M50.264 29.538A6.865 6.865 0 0149 25.231v-6.385a6.95 6.95 0 011.185-4.385c.87-1 2.213-1.461 4.189-1.461s3.24.461 4.03 1.308a5.422 5.422 0 011.186 3.769v1.538h-3.873v-1.769a3.691 3.691 0 00-.237-1.538 1.12 1.12 0 00-.456-.473 1.164 1.164 0 00-.65-.143c-.553 0-.948.154-1.106.539a4.846 4.846 0 00-.237 1.692v8.23a3.112 3.112 0 00.316 1.616c.158.385.553.539 1.106.539s.87-.154 1.027-.539c.18-.52.26-1.067.238-1.615v-1.846h3.872v1.538a5.775 5.775 0 01-1.186 3.846c-.79.923-2.133 1.385-4.03 1.385-1.897-.077-3.32-.539-4.11-1.539zM64.253 13.23h4.504l3.32 17.54H68.44l-.632-3.693h-2.608l-.632 3.692h-3.715l3.399-17.538zm3.24 11.54l-.948-6.847-.949 6.846h1.897zM74.843 16.154h-2.687V13.23h9.404v2.846h-2.687v14.692h-4.03V16.154zM88.752 13.23h6.955v1.847h-4.505v5.77h3.635v1.768h-3.635v6.462h4.505v1.77h-7.034V13.23h.079zM97.761 13.23H99.5l5.137 11.616V13.231h2.055v17.538h-1.581l-5.216-12v12h-2.134V13.231zM109.063 13.23h6.954v1.847h-4.504v5.77h3.635v1.768h-3.635v6.462h4.504v1.77h-6.954V13.23zM118.072 13.23h3.635a6.452 6.452 0 014.031 1.078c.869.692 1.264 1.923 1.264 3.538 0 2.23-.711 3.616-2.212 4.077l2.528 8.77h-2.449l-2.371-8.232h-1.976v8.231h-2.529V13.231h.079zm3.477 7.54a3.523 3.523 0 002.292-.616c.474-.385.711-1.154.711-2.308a4.84 4.84 0 00-.237-1.692 1.975 1.975 0 00-.869-.923 3.69 3.69 0 00-1.739-.308h-1.106v5.77h.948v.076zM130.164 29.462A7.607 7.607 0 01129.057 25v-5.846a12.267 12.267 0 01.395-3.308 3.92 3.92 0 011.502-2 5.27 5.27 0 012.924-.692c1.66 0 2.845.385 3.556 1.23a5.773 5.773 0 011.107 3.847v.615h-2.371v-.538c.003-.645-.05-1.288-.158-1.923a1.533 1.533 0 00-.633-1 2.491 2.491 0 00-1.501-.385 2.417 2.417 0 00-1.581.461 1.734 1.734 0 00-.632 1.231 14.024 14.024 0 00-.158 2.077v6.539a6.816 6.816 0 00.474 2.923c.316.615.949.846 1.897.846.374.045.754-.018 1.092-.182.337-.165.617-.422.805-.741a6.922 6.922 0 00.553-3.077v-1.23h-2.292v-1.77h4.584v8.692h-1.581l-.237-2a3.143 3.143 0 01-1.226 1.658 3.287 3.287 0 01-2.014.573 4.047 4.047 0 01-1.899-.352 3.928 3.928 0 01-1.499-1.186zM143.678 24.615l-3.873-11.307h2.371l2.766 8.461 2.687-8.461H150l-3.872 11.307v6.154h-2.371v-6.154h-.079z"/></g><defs><clipPath id="clip0_59161_427"><path fill="#fff" d="M0 0h34v38H0z"/></clipPath><clipPath id="clip1_59161_427"><path fill="#fff" transform="translate(49 13)" d="M0 0h101v18H0z"/></clipPath></defs></svg>
